X:31
T:GB/7b/31 Twankydillo
%%VWML:GB-7b-31-0
F:http://www.vwml.org/record/GB/7b/31
C:Transcribed by Simon Furey and Lewis Jones
L:1/8
M:3/4
I:linebreak $
K:G
d>c | B2 B2 A>A | G2 G2 D2 | E2 F2 G2 | !fermata!A4 G>A | B2 B2 G>B | c2 c2 d>c | B2 A2 G2 | d4 d>c |$ B2 B2 A>A | G2 G2 DD | EE FF GG | A2 !fermata!A2 G>A | B2 B2 G>B | c2 c2 d>c | B3 c d2 |
G4 |]

